!!!OTL: 1184. Sylvesterlied. / [Ansingelied am Vorabend des Neujahrs.]
!!!ARE: Europa, Mitteleuropa, Deutschland, Westfalen
!!!SCT: E1184
!!!TXL: @@NDS
!!!YEM: Copyright 1995, estate of Helmut Schaffrath.
**kern	**text
*ICvox	*
*M2/4	*
*k[f#]	*
*G:	*
!LO:TX:a:t=Lebhaft.	!
!LO:TX:a:t=Weſtfalen.	!
{8b	'Ne
=1	=1
8a	ſi-
8g	-den
8f#	Schnor
8e	geit
=2	=2
8d	ümme
8d	dat
8d}	Hus,
{8b	de
=3	=3
8a	Heer
8g	de
8f#	kikt
8e	tom
=4	=4
16d	Fen-
16d	-ſter
8d	he-
8d	-rut.
8r}	.
=5	=5
!LO:TX:a:t=Refr.	!
{8f#	Ni-
8g	-ges
4a	Jär.
=6	=6
8b	Schön
8a	is
8g	wol-
8f#	-ge-
=7	=7
4g	-dan.
8r}	.
==	==
!!!AGN: Ansinge -, Brauchtums - Lied, Kirchen - Fest, Silvester, Neujahr
!!!ONB: ESAC (Essen Associative Code) Database: ERK3
!!!AMT: simple duple
!!!AIN: vox
!!!EED: Helmut Schaffrath
!!!EEV: 1.0
!!!GTL: Ansingelieder an Volks- und Kirchenfesten.
!!!URL-scan: https://rosdok.uni-rostock.de/mcrviewer/recordIdentifier/rosdok_ppn745177999/iview2/phys_0106.iview2?x=188.1684953369795&y=2307.1630598152988&scale=0.701185927818147&rotation=0&layout=singlePageLayout
!!!ENC: Anna Maria Matuszewska
!!!EEV: 2024/12/23
*-	*-
